X:1
T:Title
%%score { ( 1 4 ) | ( 2 3 ) }
L:1/8
M:6/8
K:Bb
V:1 treble nm="Grand Piano"
V:4 treble 
V:2 bass 
V:3 bass 
V:1
 z3 z2[Q:1/4=75] G | G^FG B_AG | [_A,DF][B,DG][A,DF] .[G,B,E]2 [G,_DE] | [_A,CE][CE_A][Ec] BGG | %4
 [EG][EF][Ec] .[B,DB]2 [DB] | z3 .[Ge]3 | edc [GB]2 [GB] | e>dc BGE | [EG][DG][_A,DF] [G,E]3 | %9
 [EGB][B,EG][EGB] [Ge]2 [Ge] | [ce][Bd][_Ac] [GB]2 [GB] | [GB][_Ac][GB] [GB][FA][EG] | %12
 z3 [DB]3[K:bass] | z3 .[Ge]3 | edc [GB]2 [GB] | edc BGE |[M:5/8] [EG][DG][DF] [B,E]2 |] %17
V:2
 z3 z2 [E,B,E] | [E,B,E][E,A,E][E,B,E] [E,_DE][E,CE][E,B,E] | z3 .E,3 | %3
 _A,,A,,[A,,_A,] [E,G,E][E,B,E][E,B,E] | [C,B,][C,A,][F,A,] z F,[B,,_A,] | %5
 [E,G,][E,B,][E,B,] .[E,B,]2 [E,_D]/[E,D]/ | [_A,C_A][A,DA][A,EA][K:bass] [E,E]2 [E,B,] | %7
 [A,C^F]>[A,DF][A,EF] [B,EG][K:bass][E,B,E][C,A,] | [B,,B,][B,,B,]B,, E,3 | E,E,E, [E,B,]2 [E,B,] | %10
 [_A,C][A,D][A,E] [E,E]2 [E,E] | [E,E][E,E][E,E] [E,E][E,B,][E,B,] | [C,B,][C,A,][F,A,] .[B,,B,]3 | %13
 [E,G,E][E,B,E][E,B,] .[E,B,]2 [E,_D] | [_A,C_A][A,DA][A,EA][K:bass] [E,E]2 [E,B,] | %15
 [A,C^F][A,DF][A,EF] [B,EG][K:bass][E,B,E][=B,,A,] |[M:5/8] [B,,B,][B,,B,][B,,B,] [E,G,]2 |] %17
V:3
 x6 | x6 | B,,B,,B,, z CE, | x6 | z3 .B,,3 | x6 | x3[K:bass] x3 | x4[K:bass] x2 | x6 | x6 | x6 | %11
 x6 | x6 | x6 | x3[K:bass] x3 | x4[K:bass] x2 |[M:5/8] x5 |] %17
V:4
 x6 | x6 | x6 | x6 | x6 | [EB][EG][GB] z C[Ge]/[Ge]/ | x6 | x6 | x6 | x6 | x6 | x6 | %12
 [EG][EF][Ec] z[K:bass] F,_A, | BG[GB] z C[Ge] | x6 | x6 |[M:5/8] x5 |] %17

